X:1
T:Jesus Only (Kirkland)
T:Jesus Only (Kirkland)
T:William James Kirkpatrick
T:Flora Kirkland, 1899
T:Public Domain Courtesy of the Cyber Hymnal™
C:William James Kirkpatrick
Z:Public Domain
Z:Courtesy of the Cyber Hymnal™
%%score ( 1 2 ) ( 3 4 )
L:1/8
Q:1/4=112
M:4/4
K:G
V:1 treble 
V:2 treble 
V:3 bass 
V:4 bass 
V:1
 [DB]3 [DB] [Ec]2 [DB]2 | [CE]2 [EA]2 [EB]2 [EA]2 | [B,D]2 [DG]2 [CG][CF][CE][CF] | [B,G]6 z2 | %4
w: 1.~No- thing earth- ly|meets the long- ing,|No- thing here can sa- tis-|fy,|
w: 2.~“Je- sus on- ly”|on the mount- ain,|When my heart with rap- ture|thrills;|
w: 3.~O to spend each|pass- ing mo- ment|As in sight of His dear|face!|
w: 4.~Grace that saves me,|grace that keeps me,|Grace that helps me day by|day;|
w: 5.~Je- sus, Sav- ior,|Thou hast bought me,|Thou hast sealed me for Thine|own;|
 [DB]3 [DB] [Ec]2 [DB]2 | [CE]2 [EA]2 [EB]2 [EA]2 | [B,D]2 [DG]2 [CG][CF][CE][CF] | [B,G]6 z2 || %8
w: But the love and|grace of Je- sus|Meet and still each long- ing|cry.|
w: “Je- sus on- ly”|in the val- ley,|When life’s woe my spir- it|fills.|
w: O to show to|souls in dark- ness|All the beau- ty of His|grace!|
w: Faith and hope and|peace re- new- ing,|Lest I fal- ter by the|way.|
w: Hold me, guard me,|and di- rect me,|Till Thou call- est, “Child, come|home.”|
"^Refrain" [DA]3 [Fd] [Fd]2 [FA]2 | [GB]3 [Gc] [GB]2 [DG]2 | [FA]3 [Fd] [Gd][G^c][GB][Gc] | %11
w: |||
w: |||
w: “Je- sus on- ly,|Je- sus on- ly,”|Be my rap- tured song to-|
w: |||
w: |||
 d4- [Ad]3 z | [Gd]3 [Ge] [Gd]2 [DB]2 | [GB]3 [Gc] [GB]2 [DA]2 | [EA]3 [EB] [Ec]2 E2 | %15
w: ||||
w: ||||
w: day; “Je-|* sus on- ly,|Je- sus on- ly,”|Je- sus, Je- sus|
w: ||||
w: ||||
 [FB]3 [FA] [DG]4 |] %16
w: |
w: |
w: all the way.|
w: |
w: |
V:2
 x8 | x8 | x8 | x8 | x8 | x8 | x8 | x8 || x8 | x8 | x8 | F2 G2 x4 | x8 | x8 | x6 E2 | x8 |] %16
V:3
 [G,,G,]3 [G,,G,] [G,,G,]2 [G,,G,]2 | [C,G,]2 [C,G,]2 [C,G,]2 [C,G,]2 | %2
 [D,G,]2 [D,B,]2 [D,A,][D,A,][D,A,][D,A,] | [G,,G,]6 z2 | [G,,G,]3 [G,,G,] [G,,G,]2 [G,,G,]2 | %5
 [C,G,]2 [C,G,]2 [C,G,]2 [C,G,]2 | [D,G,]2 [D,B,]2 [D,A,][D,A,][D,A,][D,A,] | [G,,G,]6 z2 || %8
 [D,F,]3 [D,A,] [D,A,]2 [D,D]2 | [G,D]3 [G,E] [G,D]2 [G,B,]2 | %10
 [D,D]3 [D,A,] [E,A,][E,A,][A,,A,][A,,A,] | (A,2 _C2 [D,E]3) z | [G,B,]3 [G,C] [G,B,]2 G,2 | %13
 [G,,D]3 [G,,E] [G,,D]2 [G,,B,]2 | [B,,A,]3 [B,,^G,] [A,,A,]2 [C,A,]2 | [D,D]3 [D,C] [G,,B,]4 |] %16
V:4
 x8 | x8 | x8 | x8 | x8 | x8 | x8 | x8 || x8 | x8 | x8 | D,4- x4 | x6 G,2 | x8 | x8 | x8 |] %16

